X: 231
T: Bai nian
%%abc-version 2.0
%%abcx-abcm2ps-target-version 5.9.1 (29 Sep 2008)
%%abc-creator hum2abc beta
%%abcx-conversion-date 2013/10/02 07:52:29
%%abc-edited-by Helmut Schaffrath
%%humdrum-veritas 846486187
%%humdrum-veritas-data 3451911643
%%continueall 1
%%barnumbers 0
L: 1/8
M: 2/4
K: F
f2d c [I:setbarnb 1]| 
f2d c | 
f d f g | 
c4 | 
cf2d | 
c dc2 | 
f2A G | 
F2z2 | 
c dc2 | 
F GF2 | 
cc2d | 
c4 | 
cc2f | 
c2c2 | 
f f A G | 
FB2G | 
F4 |]  



